mono-outline/visa.svg

<svg xmlns="http://www.w3.org/2000/svg" fill="none" viewBox="0 0 780 500"><g clip-path="url(#a)"><path stroke="#393939" stroke-width="30" d="M53.487 14h673.524c21.257 0 38.488 16.816 38.488 37.559v394.38c0 20.744-17.231 37.561-38.488 37.561H53.487C32.231 483.5 15 466.684 15 445.939V51.559C15 30.816 32.231 14 53.487 14Z"/><path fill="#393939" d="M486.052 147.154c-45.064 0-85.335 23.364-85.335 66.53 0 49.504 71.422 52.923 71.422 77.792 0 10.472-11.997 19.845-32.487 19.845-29.079 0-50.814-13.098-50.814-13.098l-9.299 43.56s25.037 11.064 58.278 11.064c49.269 0 88.038-24.511 88.038-68.416 0-52.309-71.72-55.627-71.72-78.71 0-8.203 9.848-17.19 30.28-17.19 23.053 0 41.861 9.525 41.861 9.525l9.102-42.071s-20.465-8.831-49.326-8.831Zm-412.289 3.175-1.0911 6.35s18.9583 3.471 36.0331 10.394c21.986 7.939 23.552 12.561 27.255 26.915l40.348 155.584h54.088l83.325-199.243h-53.963l-53.542 135.467-21.848-114.828c-2.004-13.142-12.153-20.639-24.576-20.639H73.763Zm261.658 0-42.333 199.243h51.459l42.183-199.243h-51.309Zm287.002 0c-12.408 0-18.983 6.645-23.807 18.257l-75.39 180.986h53.963l10.441-30.164h65.743l6.348 30.164h47.615l-41.539-199.243h-43.374Zm7.018 53.829 15.996 74.766h-42.853l26.857-74.766Z"/></g><defs><clipPath id="a"><path fill="#fff" d="M0 0h780v500H0z"/></clipPath></defs></svg>

<svg width="780" height="500" viewBox="0 0 780 500" fill="none" xmlns="http://www.w3.org/2000/svg">
<g clip-path="url(#clip0_6278_125896)">
<path d="M53.487 14H727.011C748.268 14 765.499 30.816 765.499 51.559V445.939C765.499 466.683 748.268 483.5 727.011 483.5H53.487C32.231 483.5 15 466.684 15 445.939V51.559C15 30.816 32.231 14 53.487 14Z" stroke="#393939" stroke-width="30"/>
<path d="M486.052 147.154C440.988 147.154 400.717 170.518 400.717 213.684C400.717 263.188 472.139 266.607 472.139 291.476C472.139 301.948 460.142 311.321 439.652 311.321C410.573 311.321 388.838 298.223 388.838 298.223L379.539 341.783C379.539 341.783 404.576 352.847 437.817 352.847C487.086 352.847 525.855 328.336 525.855 284.431C525.855 232.122 454.135 228.804 454.135 205.721C454.135 197.518 463.983 188.531 484.415 188.531C507.468 188.531 526.276 198.056 526.276 198.056L535.378 155.985C535.378 155.985 514.913 147.154 486.052 147.154ZM73.763 150.329L72.6719 156.679C72.6719 156.679 91.6302 160.15 108.705 167.073C130.691 175.012 132.257 179.634 135.96 193.988L176.308 349.572H230.396L313.721 150.329H259.758L206.216 285.796L184.368 170.968C182.364 157.826 172.215 150.329 159.792 150.329H73.763ZM335.421 150.329L293.088 349.572H344.547L386.73 150.329H335.421ZM622.423 150.329C610.015 150.329 603.44 156.974 598.616 168.586L523.226 349.572H577.189L587.63 319.408H653.373L659.721 349.572H707.336L665.797 150.329H622.423ZM629.441 204.158L645.437 278.924H602.584L629.441 204.158Z" fill="#393939"/>
</g>
<defs>
<clipPath id="clip0_6278_125896">
<rect width="780" height="500" fill="white"/>
</clipPath>
</defs>
</svg>
